!!!!SEGMENT: pl-wtm--r-2021_smietanski-emil-wladyslaw--romanza-op-16.krn
!!!cenid: 18xx:2003
!!!COM: Śmietański, Emil Władysław
!!!COM-rismID: pe50041781
!!!CDT: 1845-1886
!!!CNT: Polish
!!!OTL: Romanza op. 16
!!!PDT: 1867
!!!AGN: Secular
!!!OMD: Quasi allegretto.
!!!YEC: Copyright 2022 Narodowy Instytut Fryderyka Chopina (https://polishscores.org)
!!!YEM: License CC-BY-4.0 (https://creativecommons.org/licenses/by/4.0)
!!!SMS-siglum: PL-Wtm
!!!SMS-shelfmark: R 2021
!!!SMS-shelfwork: W
!!!SMS-variant: Partytura PL-Wtm R 2021:0002-0004
!!!SMS-altvar: Violino. PL-Wtm R 2021:0004-0005
!!!NIFC-rismSourceID: 1001112342
!!!NIFC-rismChildID: 1001112342
!!!NIFC-islandoraID: pl-wtm:29465
!!!URL-pdf-islandora: https://repozytorium.nifc.pl/islandora/object/pl-wtm%3A29465/datastream/PDF/view
!!!URL-scan: https://polish.musicsources.pl/pl/lokalizacje/galeria/rekopisy/6513 @EN{Scan on Polish Music Sources Website} @PL{Skany w portalu Dziedzictwo Muzyki Polskiej w otwartym dostępie}
!!!IIIF:
!!!ONB-nifc: UWAGA: tylko na podstawie partytury (dodatkowy głos skrzypiec); proszę uzupełnić pola SMS
!!!AIN: 1 empty 1 piano 1 violn
!!!key:
**kern	**kern	**dynam	**kern	**dynam
*part3	*part2	*	*part1	*
*staff3	*staff2	*	*staff1	*
*Iempty	*Ipiano	*	*Ivioln	*
*	*I"Piano.	*	*I"Violine.	*
*clefF4	*clefG2	*	*clefG2	*
*k[]	*k[]	*	*k[]	*
*C:	*C:	*	*C:	*
*M6/8	*M6/8	*	*M6/8	*
=1	=1	=1	=1	=1
!	!	!	!LO:TX:t=P:problem=poprawione klamry	!
!	!	!	!LO:TX:a:i:t=legato	!
4.C/ 4.CC/	4.g/ 4.e/	p	4.cc\	.
4BB/ 4BBB/	4g/ 4d/	.	4dd\	.
!	!	!	!LO:TX:a:i:t=espr.	!
8BB-X/ 8BBB-X/	8g/ 8c/	.	8ee\	.
=2	=2	=2	=2	=2
4.AA/ 4.AAA/	4.f/ 4.c/	.	[4.ff\	<
.	.	.	.	[ >
4.GG#X/ 4.GGG#X/	8d/L 8B/	.	4ff\]	]]
.	8b/	.	.	.
.	8d/J	.	8ee\	.
=3	=3	=3	=3	=3
*	*^	*	*	*
4.AA\ 4.AAA\	8d</L 8E</	4.ryy	.	4a/	.
.	8c</	.	.	.	.
.	8A</J 8F#X</	.	.	8cc/	.
8GG/L 8GGG/	4.g/	8g\L 8G\	.	8b/L	.
8FF#X/ 8FFF#X/	.	8A\	.	8cc/	.
8FFn/J 8FFFn/	.	8B\J	.	8dd/J	.
*	*v	*v	*	*	*
=4	=4	=4	=4	=4
2.EE/ 2.EEE/	4.g/ 4.c/ 4.G/	<	[4.cc/	<
.	4g#X/ 4d/ 4G#X/	.	4cc/]	[ >
.	8b\	[[	8ee/	]]
=5	=5	=5	=5	=5
4C/ 4CC/	4a/ 4e/ 4A/	.	4aa/	>
8D/ 8DD/	8a/ 8d/ 8A/	.	8ff#X/	.
4.GG/ 4.GGG/	4.b/ 4.d/ 4.G/	.	4.gg/	]
=6	=6	=6	=6	=6
4.GG/ 4.GGG/	4b/ 4d/ 4G/	>	4gg/	>
.	8b-X/ 8c#X/	.	8ee/	.
4FF/ 4FFF/	4a/ 4d/ 4A/	.	4dd/	]
8FF#X/ 8FFF#X/	8a/ 8c#/ 8A/	]]	8dd#X/	.
=7	=7	=7	=7	=7
2.GG/ 2.GGG/	4g/ 4B/ 4G/	.	4ee/	.
.	8f#X/ 8c/ 8A/	.	8dd/	.
.	4fn/ 4B/ 4G/	.	(8g\L	.
.	.	.	8gg\	.
.	8f/ 8B/ 8G/	.	8g\J)	.
=8	=8	=8	=8	=8
4.C/ 4.CC/	8e/L 8c/ 8G/	.	4.cc/	.
.	8g/ 8e/	.	.	.
.	8g/J 8e/	.	.	.
4BB/ 4BBB/	4g/ 4d/	.	16r	.
.	.	.	(16dd\LL	.
.	.	.	16cc#X\	p
.	.	.	16dd\	.
8BB-X/ 8BBB-X/	8g/ 8c/	.	16ee\	.
.	.	.	16ccn\JJ)	.
!!LO:LB:g=original
=9	=9	=9	=9	=9
4.AA/ 4.AAA/	8f/L 8c/	.	8ff'\	.
.	8f/ 8d/	.	4b^^\	.
.	8f/J 8d/	.	.	.
4AA/ 4AAA/	4f/ 4c/	.	16r	.
.	.	.	(16cc\LL	.
.	.	.	16b\	.
.	.	.	16cc\	.
8GG#X/ 8GGG#X/	8f/ 8B/	.	16dd\	.
.	.	.	16b\JJ	.
=10	=10	=10	=10	=10
4.GGn/ 4.GGGn/	8e/L 8B/	.	8ee'\)	.
.	8e/ 8c/	.	4a^^\	.
.	8e/J 8c/	.	.	.
4GG/ 4GGG/	4e/ 4B/	.	16r	.
.	.	.	(16b\LL	.
.	.	.	16a\	.
.	.	.	16b\	.
8FF#X/ 8FFF#X/	8e/ 8A/	.	16cc\	.
.	.	.	16a\JJ	.
=11	=11	=11	=11	=11
4.GG/ 4.GGG/	8e/ 8G/	.	16g\LL)	.
.	.	.	(16gg\	.
.	4cc/ 4g/ 4e/	.	16ff#X\	.
.	.	.	16gg\	.
.	.	.	16aa\	.
.	.	.	16ff#\JJ	.
*	*	*	*8va	*
4.G\ 4.GG\	8b/ 8f/	.	16gg\LL)	.
.	.	.	(16ddd\	.
.	4gg\ 4dd\ 4b\	.	16ccc#X\	.
.	.	.	16ddd\	.
.	.	.	16ggg\	.
.	.	.	16gg\JJ	.
=12	=12	=12	=12	=12
4.C/ 4.CC/	8ee\L 8cc\	.	8ccc\)	.
*	*	*	*X8va	*
!	!	!	!LO:TX:a:i:t=loco	!
.	8g\ 8e\	.	4cc\	.
.	8g\J 8e\	.	.	.
4BB/ 4BBB/	4g\ 4d\	.	16r	.
.	.	.	(16dd\LL	.
.	.	.	16cc#X\	.
.	.	.	16dd\	.
8BB-X/ 8BBB-X/	8g\ 8c\	.	16ee\	.
.	.	.	16ccn\JJ	.
=13	=13	=13	=13	=13
4.AA/ 4.AAA/	8f\L 8c\	.	8ff'\)	.
.	8f\ 8d\	.	4b^^\	.
.	8f\J 8d\	.	.	.
4AA/ 4AAA/	4f\ 4c\	.	16r	.
.	.	.	(16cc\LL	.
.	.	.	16b\	.
.	.	.	16cc\	.
8GG#X/ 8GGG#X/	8f\ 8B\	.	16dd\	.
.	.	.	16b\JJ	.
=14	=14	=14	=14	=14
4.GGn/ 4.GGGn/	8e\L 8B\	.	8ee^^\)	.
.	8e\ 8c\	.	4a^^\	.
.	8e\J 8c\	.	.	.
4GG/ 4GGG/	4e\ 4B\	.	16r	.
.	.	.	(16b\LL	.
.	.	.	16a\	.
.	.	.	16b\	.
8FF#X/ 8FFF#X/	8e\ 8A\	.	16cc\	.
.	.	.	16a\JJ)	.
=15	=15	=15	=15	=15
*	*	*	*Xtuplet	*
4.GG/ 4.GGG/	8e/L 8G/	.	(24f\LL	p <
.	.	.	24cc\	.
.	.	.	24b\	.
.	8g/ 8e/	.	24cc\	.
.	.	.	24g\	.
.	.	.	24b\	.
.	8g/J 8e/	.	24cc\	.
.	.	.	24b\	.
.	.	.	24cc\JJ	.
4.GG/ 4.GGG/	8g/L 8d/	.	24dd\LL	.
.	.	.	24g\	.
.	.	.	24cc#X\	.
.	8g/ 8d/	.	24dd\	.
.	.	.	24cc#\	.
.	.	.	24dd\	.
.	8g/J 8c/	.	24ee\	.
.	.	.	24g\	.
.	.	.	24ee\JJ)	[[
!!LO:LB:g=original
=16	=16	=16	=16	=16
4.GG/ 4.GGG/	8a/L 8c/	<	(24cc\LL	<
.	.	.	24ff\	.
.	.	.	24ee\	.
.	8cc/ 8a/	.	24ff\	.
.	.	.	24cc\	.
.	.	.	24ee\	.
.	8cc/J 8a/	.	24ff\	.
.	.	.	24ee\	.
.	.	.	24ff\JJ	.
4.GG/ 4.GGG/	8cc/L 8g/	>	24gg\LL	.
.	.	.	24cc\	.
.	.	.	24ff#X\	.
.	8cc/ 8g/	.	24gg\	.
.	.	.	24ff#\	.
.	.	.	24gg\	.
.	8cc/J 8f#X/	.	24aa\	.
.	.	.	24cc\	.
.	.	.	24aa\JJ)	.
=17	=17	=17	=17	=17
4.GG/ 4.GGG/	8cc/L 8g/	.	(24gg\LL	.
.	.	.	24cc\	.
.	.	.	24ff#X\	[
.	8cc/ 8g/	.	24gg\	.
.	.	.	24cc\	p
.	.	.	24gg\	.
.	8cc/J 8f#X/	.	24aa\	.
.	.	.	24cc\	.
.	.	.	24aa\JJ	.
4.GG/ 4.GGG/	8cc/L 8g/	]	24gg\LL	>
.	.	.	24cc\	.
.	.	.	24ff#\	.
.	8cc/ 8g/	.	24gg\	.
.	.	.	24cc\	.
.	.	.	24gg\	.
.	8cc/J 8f#/	.	24aa\	.
.	.	.	24cc\	.
.	.	.	24aa\JJ)	]]
=18	=18	=18	=18	=18
8GG/L 8GGG/	8cc/L 8g/	pp	(24gg\LL	<
.	.	.	24cc\	.
.	.	.	24gg\	.
8AA-X/ 8AAA-X/	8cc/ 8g-X/	.	24aa-X\	.
.	.	.	24cc\	.
.	.	.	24aa-\	.
8D-X/J 8DD-X/	8dd-X/J 8f/	.	24aa-\	.
.	.	.	24dd-X\	.
.	.	.	24aa-\JJ	.
8F/L 8FF/	8cc/L 8f/	.	24aa-\LL	[
.	.	.	24cc\	>
.	.	.	24aa-\	.
8G/ 8GG/	8cc/ 8f/	.	24gg\	.
.	.	.	24cc\	.
.	.	.	24gg\	.
8GG/J 8GGG/	8b/J 8f/	.	24gg\	.
.	.	.	24b\	.
.	.	.	24gg\JJ)	]]
=19	=19	=19	=19	=19
!	!LO:TX:t=P:problem=wykreślone g	!	!	!
8C/L 8CC/	8cc/L 8e/	.	(24gg\LL	<
.	.	.	24cc\	.
.	.	.	24gg\	.
8AA-X/ 8AAA-X/	8cc/ 8g-X/	.	24aa-X\	.
.	.	.	24cc\	.
.	.	.	24aa-\	.
8D-X/J 8DD-X/	8dd-X/J 8f/	.	24aa-\	.
.	.	.	24dd-X\	.
.	.	.	24aa-\JJ	.
8F/L 8FF/	8cc/L 8f/	.	24aa-\LL	[ >
.	.	.	24cc\	.
.	.	.	24aa-\	.
8G/ 8GG/	8cc/ 8f/	.	24gg\	.
.	.	.	24cc\	.
.	.	.	24gg\	.
8GG/J 8GGG/	8b/J 8f/	.	24gg\	.
.	.	.	24b\	.
.	.	.	24gg\JJ)	]
=20	=20	=20	=20	=20
4.C/ 4.CC/	8cc/L 8e/	.	(24gg\LL	.
.	.	.	24cc\	>
.	.	.	24ff#X\	.
.	8cc/ 8e/	.	24gg\	.
.	.	.	24ee\	.
.	.	.	24ff#\	.
.	8cc/J 8e/	.	24gg\	.
.	.	.	24ee\	.
.	.	.	24gg\JJ	.
4.C/ 4.CC/	8ee\L 8g\	.	24ccc\LL	.
.	.	.	24ee\	.
.	.	.	24bb\	.
.	8ee\ 8g\	.	24ccc\	.
.	.	.	24gg\	.
.	.	.	24bb\	.
.	8ee\J 8g\	.	24ccc\	.
.	.	.	24gg\	.
.	.	.	24ccc\JJ)	]]
!!LO:LB:g=original
=21	=21	=21	=21	=21
!	!LO:TX:t=P:problem=wykreślone ee i cc	!	!	!
2.C/ 2.CC/	8gg\L 8cc\	.	24eee\LL	.
.	.	.	24gg\	.
.	.	.	24ddd#X\	.
.	8gg\ 8cc\	.	24eee\	.
.	.	.	24ccc\	>
.	.	.	24ddd#\	.
.	8gg\J 8cc\	.	24eee\	.
.	.	.	24ccc\	.
.	.	.	24eee\JJ	.
*	*	*	*8va	*
.	8ccc\L 8ee\	.	24ggg\LL	.
.	.	.	24ccc\	.
.	.	.	24fff#X\	.
.	8ccc\ 8ee\	.	24ggg\	.
.	.	.	24eee\	.
.	.	.	24fff#\	.
.	8ccc\J 8ee\	.	24ggg\	.
.	.	.	24eee\	.
.	.	.	24ggg\JJ	.
=22	=22	=22	=22	=22
*tremolo	*	*	*	*
32CC/LLL	4.eee\ 4.gg\	ff	2cccc\	.
32C/	.	.	.	.
32CC/	.	.	.	.
32C/	.	.	.	.
32CC/	.	.	.	.
32C/	.	.	.	.
32CC/	.	.	.	.
32C/	.	.	.	.
32CC/	.	.	.	.
32C/	.	.	.	.
32CC/	.	.	.	.
32C/JJJ	.	.	.	.
32CC/LLL	8r	.	.	.
32C/	.	.	.	.
32CC/	.	.	.	.
32C/	.	.	.	.
*	*	*	*X8va	*
!	!	!	!LO:TX:a:i:rj:t=loco	!
32CC/	8e/L 8c/	.	4r	.
32C/	.	.	.	.
32CC/	.	.	.	.
32C/	.	.	.	.
32CC/	8g/J 8e/	.	.	.
32C/	.	.	.	.
32CC/	.	.	.	.
32C/JJJ	.	.	.	.
=23	=23	=23	=23	=23
32CC/LLL	4.cc/ 4.g/ 4.e/ 4.c/	<	2r	.
32C/	.	.	.	.
32CC/	.	.	.	.
32C/	.	.	.	.
32CC/	.	.	.	.
32C/	.	.	.	.
32CC/	.	.	.	.
32C/	.	.	.	.
32CC/	.	.	.	.
32C/	.	.	.	.
32CC/	.	.	.	.
32C/JJJ	.	.	.	.
32BBB/LLL	4dd/ 4g/ 4d/	.	.	.
32BB/	.	.	.	.
32BBB/	.	.	.	.
32BB/	.	.	.	.
32BBB/	.	.	4r	.
32BB/	.	.	.	.
32BBB/	.	.	.	.
32BB/JJJ	.	.	.	.
32BBB-/LLL	8ee/ 8cc/ 8g/ 8e/	.	.	.
32BB-X/	.	.	.	.
32BBB-/	.	.	.	.
32BB-X/JJJ	.	.	.	.
=24	=24	=24	=24	=24
32AAA/LLL	4.ff\ 4.cc\ 4.f\	[	2r	.
32AA/	.	.	.	.
32AAA/	.	.	.	.
32AA/	.	.	.	.
32AAA/	.	.	.	.
32AA/	.	.	.	.
32AAA/	.	.	.	.
32AA/	.	.	.	.
32AAA/	.	.	.	.
32AA/	.	.	.	.
32AAA/	.	.	.	.
32AA/JJJ	.	.	.	.
32GGG#X/LLL	4ff\ 4b\ 4d\	>	.	.
32GG#X/	.	.	.	.
32GGG#/	.	.	.	.
32GG#/	.	.	.	.
32GGG#/	.	.	4r	.
32GG#/	.	.	.	.
32GGG#/	.	.	.	.
32GG#/	.	.	.	.
32GGG#/	8ff\ 8b\ 8d\	.	.	.
32GG#/	.	.	.	.
32GGG#/	.	.	.	.
32GG#/JJJ	.	.	.	.
=25	=25	=25	=25	=25
*	*^	*	*	*
32AAA/LLL	4a/ 4e/	8d\	.	2r	.
32AA/	.	.	.	.	.
32AAA/	.	.	.	.	.
32AA/	.	.	.	.	.
32AAA/	.	4c\	] <	.	.
32AA/	.	.	.	.	.
32AAA/	.	.	.	.	.
32AA/	.	.	.	.	.
32AAA/	8cc/ 8f#X/	.	[	.	.
32AA/	.	.	.	.	.
32AAA/	.	.	.	.	.
32AA/JJJ	.	.	.	.	.
32GGG/LLL	8b\L 8g\ 8d\	8ryy	[ <	.	.
32GG/	.	.	.	.	.
32GGG/	.	.	.	.	.
32GG/	.	.	.	.	.
32GGG/	8cc\ 8g\ 8c\	4ryy	.	4r	.
32GG/	.	.	.	.	.
32GGG/	.	.	.	.	.
32GG/JJJ	.	.	.	.	.
32FFF/LLL	8dd\J 8g\ 8B\	.	.	.	.
32FF/	.	.	.	.	.
32FFF/	.	.	.	.	.
32FF/JJJ	.	.	.	.	.
*	*v	*v	*	*	*
=26	=26	=26	=26	=26
32EEE/LLL	4.cc\ 4.g\ 4.c\	[	2r	.
32EE/	.	.	.	.
32EEE/	.	.	.	.
32EE/	.	.	.	.
32EEE/	.	.	.	.
32EE/	.	.	.	.
32EEE/	.	.	.	.
32EE/	.	.	.	.
32EEE/	.	.	.	.
32EE/	.	.	.	.
32EEE/	.	.	.	.
32EE/JJJ	.	.	.	.
32EE/LLL	4r	.	.	.
32E/	.	.	.	.
32EE/	.	.	.	.
32E/	.	.	.	.
32EE/	.	.	4r	.
32E/	.	.	.	.
32EE/	.	.	.	.
32E/	.	.	.	.
32EE/	8ee\ 8g#X\ 8e\	.	.	.
32E/	.	.	.	.
32EE/	.	.	.	.
32E/JJJ	.	.	.	.
=27	=27	=27	=27	=27
32CC/LLL	4aa\ 4ee\ 4a\	>	2r	.
32C/	.	.	.	.
32CC/	.	.	.	.
32C/	.	.	.	.
32CC/	.	.	.	.
32C/	.	.	.	.
32CC/	.	.	.	.
32C/JJJ	.	.	.	.
32DD/LLL	8ff#X\ 8dd\ 8f#X\	.	.	.
32D/	.	.	.	.
32DD/	.	.	.	.
32D/JJJ	.	.	.	.
32GGG/LLL	4.gg\ 4.b\ 4.g\	]	.	.
32GG/	.	.	.	.
32GGG/	.	.	.	.
32GG/	.	.	.	.
32GGG/	.	.	4r	.
32GG/	.	.	.	.
32GGG/	.	.	.	.
32GG/	.	.	.	.
32GGG/	.	.	.	.
32GG/	.	.	.	.
32GGG/	.	.	.	.
32GG/JJJ	.	.	.	.
!!LO:PB:g=original
=28	=28	=28	=28	=28
32GGG/LLL	4gg\ 4b\ 4g\	.	2r	.
32GG/	.	.	.	.
32GGG/	.	.	.	.
32GG/	.	.	.	.
32GGG/	.	.	.	.
32GG/	.	.	.	.
32GGG/	.	.	.	.
32GG/	.	.	.	.
32GGG/	8ee\ 8b-X\ 8c#X\	.	.	.
32GG/	.	.	.	.
32GGG/	.	.	.	.
32GG/JJJ	.	.	.	.
32FFF/LLL	4dd\ 4a\ 4d\	.	.	.
32FF/	.	.	.	.
32FFF/	.	.	.	.
32FF/	.	.	.	.
32FFF/	.	.	4r	.
32FF/	.	.	.	.
32FFF/	.	.	.	.
32FF/JJJ	.	.	.	.
32FFF#/LLL	8dd#X\ 8a\ 8cn\	.	.	.
32FF#/	.	.	.	.
32FFF#/	.	.	.	.
32FF#X/JJJ	.	.	.	.
=29	=29	=29	=29	=29
32GGG/LLL	4ee\ 4g\ 4c\	>	2r	.
32GG/	.	.	.	.
32GGG/	.	.	.	.
32GG/	.	.	.	.
32GGG/	.	.	.	.
32GG/	.	.	.	.
32GGG/	.	.	.	.
32GG/	.	.	.	.
32GGG/	8dd\ 8f#X\ 8c\	.	.	.
32GG/	.	.	.	.
32GGG/	.	.	.	.
32GG/JJJ	.	.	.	.
32GGG/LLL	4g/ 4fn/ 4B/	.	.	.
32GG/	.	.	.	.
32GGG/	.	.	.	.
32GG/	.	.	.	.
32GGG/	.	.	8r	.
32GG/	.	.	.	.
32GGG/	.	.	.	.
32GG/	.	.	.	.
32GGG/	8G/	]	8gg\	.
32GG/	.	.	.	.
32GGG/	.	.	.	.
32GG/JJJ	.	.	.	.
=30	=30	=30	=30	=30
4.E\ 4.EE\	4.c</ 4.G</	p	[4.cc\	<
4.D#X\ 4.DD#X\	8A</L 8F#X</	.	4cc\]	[ >
.	8f#X</	.	.	.
.	8A</J	.	8b\	]
=31	=31	=31	=31	=31
*	*^	*	*	*
*	*tremolo	*	*	*	*
4.e\	16cc/LL	4.g\	.	2r	.
.	16cc/	.	.	.	.
.	16cc/	.	.	.	.
.	16cc/	.	.	.	.
.	16cc/	.	.	.	.
.	16cc/JJ	.	.	.	.
*	*Xtremolo	*	*	*	*
4.d#X\	4cc/	4.f#X\	.	.	.
.	.	.	.	4r	.
.	8b/	.	.	.	.
*	*v	*v	*	*	*
=32	=32	=32	=32	=32
4.D\ 4.DD\	4.B-X</ 4.Fn</	.	[4.b-X/	<
4.C#X\ 4.CC#X\	8G</L 8E</	.	4b-/]	[ >
.	8e</	.	.	.
.	8G</J	.	8a/	]]
=33	=33	=33	=33	=33
*	*^	*	*	*
*	*tremolo	*	*	*	*
4.d\	16b-X/LL	4.f\	.	2r	.
.	16b-/	.	.	.	.
.	16b-/	.	p	.	.
.	16b-/	.	.	.	.
.	16b-/	.	.	.	.
.	16b-/JJ	.	.	.	.
*	*Xtremolo	*	*	*	*
4.c#X\	4b-/	4.e\	.	.	.
.	.	.	.	4r	.
.	8a/	.	.	.	.
*	*v	*v	*	*	*
=34	=34	=34	=34	=34
4.d\	4.b-X/ 4.f/	p	(16b-X\LL	.
.	.	.	16cc#X\	.
.	.	.	16dd\	p
.	.	.	16ee\	.
.	.	.	16ff\	.
.	.	.	16bb-X\JJ)	.
4.c#X\	4b-/ 4e/	.	(16bb-\LL	.
.	.	.	16ee\	.
.	.	.	16gg\	.
.	.	.	16gg#X\	.
.	8a/	.	16aa\	.
.	.	.	16a\JJ)	.
!!LO:LB:g=original
=35	=35	=35	=35	=35
4.c\	4.a-X/ 4.e-X/	.	(16a-X\LL	.
.	.	.	16b\	.
.	.	.	16cc\	.
.	.	.	16dd\	.
.	.	.	16ee-X\	.
.	.	.	16aa-X\JJ)	.
4.B\	4a-/ 4d/	.	(16aa-\LL	.
.	.	.	16dd\	.
.	.	.	16ff\	.
.	.	.	16ff#X\	.
.	8g/	.	16gg\	.
.	.	.	16g\JJ)	.
=36	=36	=36	=36	=36
4.C\ 4.CC\	8r	.	(16a-X\LL	.
.	.	.	16b\	.
.	8e-X/L 8A-X/	.	16cc\	.
.	.	.	16dd\	.
.	8a-X/J 8e-/	<	16ee-X\	.
.	.	.	16aa-X\JJ)	.
4.D\ 4.DD\	8r	.	(16b\LL	.
.	.	.	16cc#X\	.
.	8g/L 8B/	.	16dd\	.
!	!	!	!LO:TX:t=cresc.:ext=ut:problem=dynamics with extention lines	!LO:HP:t=cresc.
.	.	.	16ee-\	<
.	8b/J 8g/	.	16ff\	.
.	.	.	16bb\JJ)	.
=37	=37	=37	=37	=37
!	!LO:TX:t=P:problem=główka nuty g	!	!	!
4.E-X\ 4.EE-X\	8r	.	(16cc\LL	.
.	.	.	16dd\	.
.	8g/L 8c/	.	16ee-X\	.
.	.	.	16ff#X\	.
.	8cc/J 8g/	.	16gg\	.
.	.	.	16ccc\JJ)	.
4.E-\ 4.EE-\	8r	.	(16cc#X\LL	.
.	.	.	16dd\	.
.	8g/L 8c#X/	.	16ee-\	.
.	.	.	16ff#\	.
.	8cc#X/J 8g/	[	16gg\	[
.	.	.	16ccc#X\JJ)	.
=38	=38	=38	=38	=38
4E-X\ 4EE-X\	8r	>	(16ccc#X\LL	.
.	.	.	16gg\	.
.	8cc#X/L 8g/ 8c#X/	.	16bb-X\	.
.	.	.	16bbn\	.
8En\ 8EEn\	8ccn/J 8g/ 8cn/	]	16cccn\	.
!	!	!	!LO:TX:t=dim.:ext=u:problem=dynamics with extention lines	!LO:HP:t=dim.
.	.	.	16cc\JJ)	>
4D\ 4DD\	8r	>	(16ccc\LL	.
.	.	.	16ff#X\	.
.	8cc/L 8f#X/ 8c/	.	16aa\	.
.	.	.	16aa#X\	.
8D#X\ 8DD#X\	8b/J 8f#/ 8B/	.	16bb\	.
.	.	]]	16b\JJ)	.
=39	=39	=39	=39	=39
4C#X\ 4CC#X\	8r	>	(16bb\LL	.
.	.	.	16ee#X\	.
.	8b/L 8e#X/ 8B/	.	16gg#X\	.
.	.	.	16aa\	.
8C##X\ 8CC##X\	8a#X/J 8e#/ 8A#X/	]	16aa#X\	.
.	.	.	16a#X\JJ)	.
4C#\ 4CC#\	8r	>	(16bb-X\LL	.
!	!	!	!LO:SIC:v:o=16ee#\	!
.	.	.	16een	.
.	8b-X/L 8en/ 8B-X/	.	16gg#\	.
!	!	!	!LO:SIC:v:o=16aa#\	!
.	.	.	16aan	.
8C#\ 8CC#\	8b-/J 8e/ 8B-/	]	16bb-\	.
!	!	!	!LO:SIC:v:o=16ee#\JJ)	!
.	.	.	16een	]
!!LO:LB:g=original
=40	=40	=40	=40	=40
4.D/ 4.DD/	8r	<	(16bbn\LL	.
.	.	.	16ee\	<
.	8b/L 8e/ 8B/	.	16gg\	.
.	.	.	16aa\	.
.	8b-X/J 8e/ 8B-X/	.	16bb-X\	.
.	.	.	16ee\JJ)	.
4.D/ 4.DD/	8r	.	(16bbn\LL	.
.	.	.	16ee\	.
.	8bn/L 8e/ 8Bn/	.	16gg\	.
.	.	.	16aa\	.
.	8b-X/J 8e/ 8B-X/	.	16bb-X\	.
.	.	.	16ee\JJ)	.
=41	=41	=41	=41	=41
*Xtremolo	*	*	*	*
8D/L 8DD/	8a/L 8g/ 8c#X/ 8A/	<	(16aa\LL	.
.	.	.	16ee\	.
8D/ 8DD/	8a/ 8g/ 8c#/ 8A/	.	16gg\	.
.	.	.	16gg#X\	.
8D/J 8DD/	8a/J 8g/ 8c#/ 8A/	.	16aa\	.
.	.	.	16eee\JJ)	.
8D/L 8DD/	8dd\L 8a\ 8f#X\ 8cn\	.	(16ddd\LL	.
.	.	.	16aa\	.
8D/ 8DD/	8dd\ 8a\ 8f#\ 8c\	[	16ccc\	.
.	.	.	16ccc#X\	.
*	*	*	*8va	*
8D/J 8DD/	8dd\J 8a\ 8f#\ 8c\	.	16ddd\	.
.	.	.	16aaa\JJ)	[[
=42	=42	=42	=42	=42
*tremolo	*	*	*	*
32GGG/LLL	4.gg\ 4.b\ 4.g\	ff	4.ggg\	ff
32GG/	.	.	.	.
32GGG/	.	.	.	.
32GG/	.	.	.	.
32GGG/	.	.	.	.
32GG/	.	.	.	.
32GGG/	.	.	.	.
32GG/	.	.	.	.
32GGG/	.	.	.	.
32GG/	.	.	.	.
32GGG/	.	.	.	.
32GG/JJJ	.	.	.	.
32BBB/LLL	4.ff#X\ 4.a\ 4.d#X\	.	4.fff#X\	.
32BB/	.	.	.	.
32BBB/	.	.	.	.
32BB/	.	.	.	.
32BBB/	.	.	.	.
32BB/	.	.	.	.
32BBB/	.	.	.	.
32BB/	.	.	.	.
32BBB/	.	.	.	.
32BB/	.	.	.	.
32BBB/	.	.	.	.
32BB/JJJ	.	.	.	.
=43	=43	=43	=43	=43
32CC/LLL	4ee\ 4cc\ 4e\	.	4eee\	.
32C/	.	.	.	.
32CC/	.	.	.	.
32C/	.	.	.	.
32CC/	.	.	.	.
32C/	.	.	.	.
32CC/	.	.	.	.
32C/	.	.	.	.
32CC/	8gg\ 8cc\ 8g\	.	8ggg\	.
32C/	.	.	.	.
32CC/	.	.	.	.
32C/JJJ	.	.	.	.
32DD/LLL	8ff#X\L 8cc\ 8f#X\	.	8fff#X\L	.
32D/	.	.	.	.
32DD/	.	.	.	.
32D/	.	.	.	.
32DD/	8gg\ 8cc\ 8g\	.	8ggg\	.
32D/	.	.	.	.
32DD/	.	.	.	.
32D/	.	.	.	.
32DD/	8aa\J 8cc\ 8a\	.	8aaa\J	.
32D/	.	.	.	.
32DD/	.	.	.	.
32D/JJJ	.	.	.	.
=44	=44	=44	=44	=44
*Xtremolo	*	*	*	*
8GG/L 8GGG/	8gg\L 8b\ 8g\	pp	4.ggg\ 4.gg\	.
*clefG2	*	*	*	*
8b/	8gg\ 8dd\	.	.	p
8b/J	8gg\J 8dd\	.	.	.
8b/L	8gg\L 8dd\	.	4.fff#X\ 4.ff#X\	.
8b/	8gg\ 8dd\	.	.	.
8b/J	8gg\J 8dd\	.	.	.
=45	=45	=45	=45	=45
8ee/L 8c/	8gg\L 8dd\	.	4eee\ 4ee\	.
8ee/ 8c/	8gg\ 8dd\	.	.	.
8ee/J 8c/	8gg\J 8cc\	.	8ggg\ 8gg\	.
!	!	!	!LO:SIC:v:n=1:o=8fff\L 8ff#X\	!
8dd/L 8d/	8ff#X\L 8cc\	.	8ff#	.
8dd/ 8d/	8ff#\ 8cc\	.	8ggg\ 8gg\	.
8dd/J 8d/	8ff#\J 8cc\	.	8aaa\J 8aa\	.
=46	=46	=46	=46	=46
8dd\L 8g\	8gg\L 8b\	.	8ggg\L 8gg\	.
8ee\ 8c\	8gg\ 8cc\	.	8eee\ 8ee\	.
8ee\J 8c\	8gg\J 8cc\	.	8ggg\J 8gg\	.
8dd\L 8d\	8ff#X\L 8cc\	.	8fff#X\L 8ff#X\	.
8dd\ 8d\	8ee\ 8cc\	.	8ggg\ 8gg\	.
!	!	!	!LO:TX:a:i:t=loco	!
8dd\J 8d\	8ff#\J 8cc\	.	8aaa\J 8aa\	.
*	*	*	*X8va	*
!!LO:LB:g=original
=47	=47	=47	=47	=47
!LO:TX:t=P:problem=klucz basowy poprawiony na wiolinowy	!	!	!	!
8dd\ 8g\	8gg\ 8b\	.	8ggg\L 8gg\	.
4ee\ 4c\	4gg\ 4cc\	.	8eee\ 8ee\	.
.	.	.	8ggg\J 8gg\	.
8dd\L 8d\	8ff#X\L 8cc\	.	8fff#X\L 8ff#X\	.
8dd\ 8d\	8ff#\ 8cc\	.	8ggg\ 8gg\	.
8dd\J 8d\	8ff#\J 8cc\	.	8aaa\J 8aa\	.
=48	=48	=48	=48	=48
!	!	!	!LO:N:vis=4	!
8dd\L 8g\	8gg\L 8b\	.	8ggg\ 8gg\	.
8B\	8d\	.	16g\LL	.
.	.	.	16b\	pp
8d\J	8g\J	.	16cc#X\	.
.	.	.	16dd\JJ	.
8g\L	8b\L	.	16cc#\LL	.
.	.	.	16dd\	.
8d\	8g\	.	16b\	.
.	.	.	16dd\	.
8g\J	8b\J	.	16ff#X\	.
.	.	.	16gg\JJ	.
=49	=49	=49	=49	=49
!	!	!	!LO:SIC:v:o=16ff\LL	!
8b\L	8dd\L	.	16ff#	.
.	.	.	16gg\	.
8g\	8b\	.	16dd\	.
.	.	.	16ff#X\	.
!	!	!	!LO:SIC:v:o=16gg\	!
8b\J	8dd\J	.	16aa#	.
.	.	.	16bb\JJ	.
!	!	!	!LO:SIC:v:o=16gg\LL	!
8dd\L	8gg\L	.	16aa#	.
.	.	.	16bb\	.
8b\	8dd\	.	16ff#\	.
.	.	.	16gg\	.
8dd\J	8gg\J	.	16bb\	.
.	.	.	16ddd\JJ	.
=50	=50	=50	=50	=50
!	!LO:N:vis=4	!	!	!
16gg\LL	4.bb\	<	4.ggg\	.
16ff#X\	.	.	.	.
16gg\	.	.	.	.
16f#X\JJ	.	.	.	.
*clefF4	*	*	*	*
16g\LL	.	.	.	.
16F#X\JJ	.	.	.	.
16G\LL	4r	.	4r	.
16F#\	.	[	.	.
16G\	.	f	.	.
16FF#X\JJ	.	.	.	.
16GG/LL	8b\ 8g\ 8B\	.	8r	.
16FFF#X/JJ	.	.	.	.
=51	=51	=51	=51	=51
16GGG/LL	4ee\ 4b\ 4e\	.	2r	.
16FF#X/	.	.	.	.
16GG/	.	.	.	.
16F#X/JJ	.	.	.	.
16G/LL	8cc#X\ 8a\ 8c#X\	.	.	.
16GG/JJ	.	.	.	.
16D\LL	4.dd\ 4.a\ 4.f#X\ 4.d\	.	.	.
16c#X\	.	.	.	.
16d\	.	.	4r	.
16C#X\	.	.	.	.
16D\	.	.	.	.
16CC#X\JJ	.	.	.	.
=52	=52	=52	=52	=52
16DD\LL	4dd\ 4a\ 4f#X\ 4d\	.	2r	.
16C#X\	.	.	.	.
16D\	.	.	.	.
16c#X\	.	.	.	.
16d\	8b/ 8g#X/ 8fn/ 8B/	.	.	.
16D\JJ	.	.	.	.
16Cn\LL	4a/ 4e/ 4A/	.	.	.
16BB\	.	.	.	.
16C\	.	.	4r	.
16CCn\JJ	.	.	.	.
16CC#X/LL	8a#X/ 8gn/ 8e/ 8A#X/	.	.	.
16CCC#X/JJ	.	.	.	.
!!LO:PB:g=original
=53	=53	=53	=53	=53
16DDD/LL	4b/ 4g/ 4d/ 4B/	.	2r	.
16CC#X/JJ	.	.	.	.
16DD\LL	.	.	.	.
16D\	.	.	.	.
16E\	8a/ 8g/ 8c#X/ 8A/	.	.	.
16e\JJ	.	.	.	.
!	!LO:SIC:v:n=2:o=4cn/ 4F/	!	!	!
16d\LL	4F#	.	.	.
16C#X\	.	.	.	.
16D\	.	.	4r	.
16CC#X\JJ	.	.	.	.
!	!LO:SIC:v:n=2:o=8dd\ 8f\ 8c\	!	!	!
16DD/LL	8f#	.	.	.
16DDD/JJ	.	.	.	.
=54	=54	=54	=54	=54
4GGG/	4g/ 4B/	.	4r	.
8r	8g/	p	8r	.
4A\	4e/ 4c/	.	16r	.
.	.	.	(16g\LL	<
.	.	.	16f#X\	.
.	.	.	16g\	.
8A\	8f#X/ 8d#X/ 8B/	.	16b\	.
.	.	.	16dd#X\JJ	.
=55	=55	=55	=55	=55
4G\	4b/ 4e/ 4B/	.	16ee\LL	.
.	.	.	16gg\	[ >
.	.	.	16ee\	.
.	.	.	16b\	.
8A\	8a/ 8g/ 8c#X/	.	16cc#X\	.
.	.	.	16a\JJ	]
4.D\	4.a/ 4.f#X/ 4.d/	.	4.dd\)	.
=56	=56	=56	=56	=56
4.D\	8a/L 8f#X/ 8d/	.	(16dd\LL	<
.	.	.	16f#X\	.
.	8f#/ 8d/	.	16a\	.
.	.	.	16dd\	.
.	8b/J 8fn/ 8d/	.	16ffn\	[
.	.	.	16g#X\JJ	.
4C\	8a/L 8e/	.	16b\LL	<
.	.	.	16ee\	.
.	8a/ 8e/	.	16cc\	.
.	.	.	16b\	.
8C#X\	8g/J 8e/	.	16a#X\	[
.	.	.	16gg\JJ)	.
=57	=57	=57	=57	=57
*	*^	*	*	*
4.D\	8b/L	4.f#X\	>	(16ff#X\LL	>
.	.	.	.	16b\	.
.	8b-X/	.	.	16dd\	.
.	.	.	.	16cc#X\	.
.	8an/J	.	.	16ccn\	.
.	.	.	.	16aa\JJ	]
4.G\ 4.GG\	4.g/	8ryy	]	4.gg\ 4.b\)	.
.	.	4ryy	.	.	.
*	*v	*v	*	*	*
=58	=58	=58	=58	=58
16GGG/LL	4ee\ 4b\ 4e\	f	2r	.
16FF#X/	.	.	.	.
16GG/	.	.	.	.
16F#X/	.	.	.	.
16G/	8cc#X\ 8a\ 8c#X\	.	.	.
16AA/JJ	.	.	.	.
16D\LL	4.dd\ 4.a\ 4.f#X\ 4.d\	.	.	.
16c#X\	.	.	.	.
16d\	.	.	4r	.
16C#X\	.	.	.	.
16D\	.	.	.	.
16DD\JJ	.	.	.	.
!!LO:LB:g=original
=59	=59	=59	=59	=59
4G\	4b/ 4e/ 4B/	.	(16ee\LL	p
.	.	p	16gg\	.
.	.	.	16ee\	.
.	.	.	16b\	.
8A\	8a/ 8g/ 8c#X/	.	16cc#X\	.
.	.	.	16a\JJ	.
4.D\	4.a/ 4.f#X/ 4.d/	.	4.dd\)	.
=60	=60	=60	=60	=60
16AAA/LL	4ff#X\ 4cc\ 4f#X\	f	2r	.
16GG#X/	.	.	.	.
16AA/	.	.	.	.
16G#X/JJ	.	.	.	.
16A\LL	8dd#X\ 8b\ 8d#X\	.	.	.
16BB\JJ	.	.	.	.
16E\LL	4.ee\ 4.b\ 4.g\ 4.e\	.	.	.
16d#X\	.	.	.	.
16e\	.	.	4r	.
16D#X\	.	.	.	.
16E\	.	.	.	.
16EE\JJ	.	.	.	.
=61	=61	=61	=61	=61
4A\	4dd\ 4f#X\ 4c\	.	(16ff#X\LL	<
.	.	p	16aa\	.
.	.	.	16ff#\	.
.	.	.	16ee\	.
8B\	8b\ 8a\ 8d#X\	.	16dd#X\	.
.	.	.	16b\JJ	.
4.E\	4.b\ 4.g\ 4.e\	.	4.ee\)	.
=62	=62	=62	=62	=62
4B\	4dd\ 4g\ 4d\	.	(16gg\LL	f
.	.	.	16bb\	.
.	.	.	16gg\	.
.	.	.	16ff#X\	.
8c#X\	8cc#X\ 8b\ 8e#X\	.	16ee#X\	.
.	.	.	16cc#X\JJ)	.
4F#X\	4cc#\ 4a#X\ 4f#X\	.	(16ff#\LL	.
.	.	.	16ccc#X\	>
.	.	.	16aa#X\	.
.	.	.	16ff#\	.
8c#\	8cc#\ 8b\ 8e#\	.	16ee#\	.
!	!	!	!LO:TX:t=P:problem=poprawiony łuk	!
.	.	.	16cc#\JJ)	.
=63	=63	=63	=63	=63
4.F#X\	8cc#X\L 8a#X\ 8f#X\	.	(16ff#X\LL	.
.	.	.	16a#X\	.
.	8a#\ 8f#\	.	16cc#X\	.
.	.	.	16ff#\	.
.	8dd#X\J 8an\ 8f#\	.	16aan\	.
.	.	.	16b#X\JJ)	]
4F#\	4cc#\ 4a#X\ 4f#\	.	(16cc#\LL	.
.	.	.	16ccc#X\	.
.	.	.	16aa#X\	p
.	.	.	16ff#\	.
8c#X\	8cc#\ 8b\ 8e#X\	.	16ee#X\	.
.	.	.	16cc#\JJ)	.
!!LO:LB:g=original
=64	=64	=64	=64	=64
8F#X\L	8cc#X\L 8a#X\ 8f#X\	.	(16ff#X\LL	<
.	.	.	16cc#X\	.
8E\	8cc#\ 8b-X\ 8g\	.	16gg\	.
.	.	.	16cc#\	.
8E-X\J	8cc#\J 8b-\ 8g\	.	16gg\	.
.	.	.	16cc#\JJ)	.
8D\L	4dd\ 4bn\ 4g\	<	(16gg\LL	.
.	.	.	16ddd\	.
8DD\	.	.	16bb\	.
.	.	.	16gg\	.
!	!LO:SIC:v:n=2:o=8dd\ 8cc#\ 8f#X\	!	!	!
8D\J	8ccn	.	16ff#\	.
.	.	.	16dd\JJ	.
=65	=65	=65	=65	=65
8GG/L	8dd\L 8b\ 8g\	.	16gg\LL	.
.	.	.	16b\	.
8GGG/	8b\ 8g\	.	16dd\	.
.	.	.	16gg\	.
8GG/J	8ee\J 8b-X\ 8g\	.	16bb-X\	.
.	.	.	16cc#X\JJ	.
4DD/	4dd\ 4bn\ 4g\	.	16dd\LL	.
.	.	.	16ddd\	.
!	!	!	!LO:SIC:v:o=16bb-\	!
.	.	.	16bbn	.
.	.	.	16gg\	.
8D\	8dd\ 8cc\ 8f#X\	.	16ff#X\	.
.	.	.	16dd\JJ)	[[
=66	=66	=66	=66	=66
4.G/ 4.GG/	8dd\L 8b\ 8g\	.	(16gg\LL	.
.	.	.	16b\	.
.	8b\ 8g\	.	16dd\	.
!	!	!	!LO:TX:t=cresc.:ext=ut:problem=dynamics with extention lines	!LO:HP:t=cresc.
.	.	.	16gg\	<
.	8ee\J 8b-X\ 8g\	.	16bb-X\	.
.	.	.	16cc#X\JJ	.
4.F#X/ 4.FF#X/	8dd\L 8a\	.	16dd\LL	.
.	.	.	16aa\	.
.	8dd\ 8a\	.	16ff#X\	.
.	.	.	16ee\	.
.	8cc\J 8a\	.	16dd#X\	.
.	.	.	16ccc\JJ)	.
=67	=67	=67	=67	=67
4.G/ 4.GG/	8ee\L 8b\	.	(16ee\LL	.
.	.	.	16bb\	.
.	8ee-X\	.	16gg\	.
.	.	.	16ff#X\	.
.	8dd\J	.	16ffn\	.
.	.	.	16ddd\JJ	.
4.G/ 4.GG/	8cc\L	.	16ccc\LL	.
.	.	.	16ee\	.
.	8een\ 8cc\	.	16gg\	.
.	.	.	16ccc\	.
.	8aa\J 8ee-X\ 8cc\	.	16eee-X\	.
.	.	.	16ff#X\JJ)	.
=68	=68	=68	=68	=68
2.G/ 2.GG/	8gg\L 8een\ 8cc\	>	(16gg\LL	.
.	.	.	16ggg\	[
.	8gg\ 8ee\ 8cc\	.	16eee\	>
.	.	.	16ccc\	.
.	8gg\J 8ff\ 8b\	.	16bb\	.
.	.	.	16ddd\JJ	.
.	8gg\L 8ff\ 8cc\	.	16ccc\LL	.
.	.	.	16ee\	.
.	8ee\ 8cc\	.	16gg\	.
.	.	.	16ccc\	.
.	8aa\J 8ee-X\ 8cc\	]	16eee-X\	.
.	.	.	16ff#X\JJ)	]]
!!LO:LB:g=original
=69	=69	=69	=69	=69
2.GG/ 2.GGG/	8gg\L 8een\ 8cc\	>	(16gg\LL	>
.	.	.	16gg\	.
.	8g\ 8e\ 8c\	.	16ee\	.
.	.	.	16cc\	.
.	8g\J 8f\ 8B\	.	16b\	.
.	.	.	16dd\JJ	.
.	8g\L 8e\ 8c\	.	16cc\LL	.
.	.	.	16e\	.
.	8e\ 8c\	.	16g\	.
.	.	.	16cc\	.
.	8a\J 8e-X\ 8c\	]]	16ee-X\	.
.	.	.	16f#X\JJ)	]]
=70	=70	=70	=70	=70
2.GG/ 2.GGG/	8g\L 8en\ 8c\	p	(24g\LL	.
.	.	.	24cc\	.
.	.	.	24b\	.
.	8g\ 8e\	.	24cc\	p
.	.	.	24g\	.
.	.	.	24b\	.
.	8g\J 8e\	.	24cc\	<
.	.	.	24b\	.
.	.	.	24cc\JJ	.
.	8g\L 8d\	.	24dd\LL	.
.	.	.	24g\	.
.	.	.	24cc#X\	.
.	8g\ 8d\	.	24dd\	.
.	.	.	24cc#\	.
.	.	.	24dd\	.
.	8g\J 8c\	<	24ee\	.
.	.	.	24g\	.
.	.	.	24ee\JJ)	.
=71	=71	=71	=71	=71
2.GG/ 2.GGG/	8a\L 8c\	.	(24cc\LL	.
.	.	.	24ff\	.
.	.	.	24ee\	.
.	8cc\ 8a\	.	24ff\	.
.	.	.	24cc\	.
.	.	.	24ee\	.
.	8cc\J 8a\	.	24ff\	.
.	.	.	24ee\	.
.	.	.	24ff\JJ	.
.	8cc\L 8g\	.	24gg\LL	.
.	.	.	24cc\	.
.	.	.	24ff#X\	.
.	8cc\ 8g\	.	24gg\	.
.	.	.	24ff#\	.
.	.	.	24gg\	.
.	8cc\J 8f#X\	.	24aa\	.
.	.	.	24cc\	.
.	.	.	24aa\JJ)	.
=72	=72	=72	=72	=72
2.GG/ 2.GGG/	8cc\L 8g\	.	(24gg\LL	.
.	.	.	24cc\	.
.	.	.	24ff#X\	.
.	8cc\ 8g\	.	24gg\	.
!	!	!	!LO:TX:t=P:problem=16ff poprawione na 16cc	!
.	.	.	24cc\	.
.	.	.	24gg\	.
.	8cc\J 8f#X\	.	24aa\	.
.	.	.	24cc\	.
.	.	.	24aa\JJ	.
.	8cc\L 8g\	[[	24gg\LL	.
.	.	.	24cc\	.
.	.	.	24ff#\	.
.	8cc\ 8g\	.	24gg\	.
!	!	!	!LO:TX:t=P:problem=16ff poprawione na 16cc	!
.	.	.	24cc\	.
.	.	.	24gg\	.
.	8cc\J 8f#\	.	24aa\	.
.	.	.	24cc\	.
.	.	.	24aa\JJ)	[[
!!LO:PB:g=original
=73	=73	=73	=73	=73
8GG/L 8GGG/	8cc\L 8g\	.	(24gg\LL	.
.	.	pp	24cc\	.
.	.	.	24gg\	pp
8AA-X/ 8AAA-X/	8cc\ 8g-X\	.	24aa-X\	.
.	.	.	24cc\	.
.	.	.	24aa-\	.
8D-X/J 8DD-X/	8dd-X\J 8f\	.	24aa-\	.
.	.	.	24dd-X\	.
.	.	.	24aa-\JJ	.
!LO:TX:t=P:problem=mixed beam	!	!	!	!
8F\L 8FF\	8cc\L 8f\	.	24aa-\LL	.
.	.	.	24cc\	.
.	.	.	24aa-\	.
8G\ 8GG\	8cc\ 8f\	.	24gg\	.
.	.	.	24cc\	.
.	.	.	24gg\	.
8GG/J 8GGG/	8b\J 8f\	.	24gg\	.
.	.	.	24b\	.
.	.	.	24gg\JJ	.
=74	=74	=74	=74	=74
8C/L 8CC/	8cc\L 8e\	.	(24gg\LL)	.
.	.	.	24cc\	.
.	.	.	24gg\	.
8AA-X/ 8AAA-X/	8cc\ 8g-X\	.	24aa-X\	.
.	.	.	24cc\	.
.	.	.	24aa-\	.
8D-X/J 8DD-X/	8dd-X\J 8f\	.	24aa-\	.
.	.	.	24dd-X\	.
.	.	.	24aa-\JJ	.
!LO:TX:t=P:problem=mixed beam	!	!	!	!
8F\L 8FF\	8cc\L 8f\	.	24aa-\LL	.
.	.	.	24cc\	.
.	.	.	24aa-\	.
8G\ 8GG\	8cc\ 8f\	.	24gg\	.
.	.	.	24cc\	.
.	.	.	24gg\	.
8GG/J 8GGG/	8b\J 8f\	.	24gg\	.
.	.	.	24b\	.
.	.	.	24gg\JJ)	.
=75	=75	=75	=75	=75
4.C/ 4.CC/	8cc\L 8e\	.	(24gg\LL	.
.	.	.	24cc\	.
.	.	.	24ff#X\	.
.	8cc\ 8e\	.	24gg\	.
.	.	.	24ee\	.
.	.	.	24ff#\	.
.	8cc\J 8e\	.	24gg\	.
.	.	.	24ee\	.
.	.	.	24gg\JJ	.
4.C/ 4.CC/	8ee\L 8g\	.	24ccc\LL	.
.	.	.	24ee\	.
.	.	.	24bb\	.
.	8ee\ 8g\	.	24ccc\	.
.	.	.	24gg\	.
.	.	.	24bb\	.
.	8ee\J 8g\	.	24ccc\	.
.	.	.	24gg\	.
.	.	.	24ccc\JJ)	.
=76	=76	=76	=76	=76
2.C/ 2.CC/	8gg\L 8cc\	.	(24eee\LL	.
.	.	.	24gg\	.
.	.	.	24ddd#X\	.
.	8gg\ 8cc\	.	24eee\	.
.	.	.	24ccc\	.
.	.	.	24ddd#\	.
.	8gg\J 8cc\	.	24eee\	.
.	.	.	24ccc\	.
.	.	.	24eee\JJ	.
*	*	*	*8va	*
.	8ccc\L 8ee\	.	24ggg\LL	.
.	.	.	24ccc\	.
.	.	.	24fff#X\	.
.	8ccc\ 8ee\	.	24ggg\	.
.	.	.	24eee\	.
.	.	.	24fff#\	.
.	8ccc\J 8ee\	.	24ggg\	.
.	.	.	24eee\	.
.	.	.	24ggg\JJ)	.
!!LO:LB:g=original
=77	=77	=77	=77	=77
*tremolo	*	*	*	*
32CCC/LLL	4eee\ 4gg\	.	[<4.cccc\	.
32CC/	.	.	.	.
32CCC/	.	.	.	.
32CC/	.	.	.	.
32CCC/	.	.	.	.
32CC/	.	.	.	.
32CCC/	.	.	.	.
32CC/	.	.	.	.
32CCC/	8r	.	.	.
32CC/	.	.	.	.
32CCC/	.	.	.	.
32CC/JJJ	.	.	.	.
32CCC/LLL	4r	.	4.cccc\]	.
32CC/	.	.	.	.
32CCC/	.	.	.	.
32CC/	.	.	.	.
32CCC/	.	.	.	.
32CC/	.	.	.	.
32CCC/	.	.	.	.
32CC/	.	.	.	.
32CCC/	8r	.	.	.
32CC/	.	.	.	.
32CCC/	.	.	.	.
32CC/JJJ	.	.	.	.
*	*	*	*X8va	*
=78	=78	=78	=78	=78
!	!	!	!LO:TX:a:i:rj:t=loco	!
4.C/ 4.CC/	4.g/ 4.e/	p	4.cc\	<
4BB/ 4BBB/	4g/ 4d/	.	4dd\	.
8BB-X/ 8BBB-X/	8g/ 8c/	.	8ee\	.
=79	=79	=79	=79	=79
4.AA/ 4.AAA/	4.f/ 4.c/	.	[4.ff\	.
4.GG#X/ 4.GGG#X/	8d/L 8B/	.	4ff\]	[ >
.	8b/	.	.	.
.	8d/J	.	8ee\	]]
=80	=80	=80	=80	=80
*	*^	*	*	*
4.AA\ 4.AAA\	8d</L 8E</	4.ryy	.	4a\	.
.	8c</	.	.	.	.
.	8A</J 8F#X</	.	.	8cc\	>
8GG/L 8GGG/	4.g/	8g\L 8G\	.	8b\L	]
8FF#X/ 8FFF#X/	.	8A\	.	8cc\	.
8FFn/J 8FFFn/	.	8B\J	.	8dd\J	.
*	*v	*v	*	*	*
=81	=81	=81	=81	=81
2.EE/ 2.EEE/	4.g/ 4.c/ 4.G/	.	[4.cc\	<
.	4g#X/ 4d/ 4G#X/	.	4cc\]	.
.	8b/	.	8ee\	[[
=82	=82	=82	=82	=82
4C/ 4CC/	4a/ 4e/ 4A/	.	4aa\	>
8D/ 8DD/	8a/ 8d/ 8A/	.	8ff#X\	]
4.GG/ 4.GGG/	4.b/ 4.d/ 4.G/	.	4.gg\	.
=83	=83	=83	=83	=83
4.GG/ 4.GGG/	4b\ 4d\ 4G\	.	4gg\	.
.	.	.	.	p
.	8b-X\ 8c#X\	.	8ee\	.
4FF/ 4FFF/	4a\ 4d\ 4A\	.	4dd\	.
8FF#X/ 8FFF#X/	8a\ 8c#\ 8A\	.	8dd#X\	.
!!LO:LB:g=original
=84	=84	=84	=84	=84
2.GG/ 2.GGG/	4g/ 4B/ 4G/	.	4ee\	.
.	8f#X/ 8c/ 8A/	.	8dd\	.
.	4fn/ 4B/ 4G/	.	8g\L	.
.	.	.	8gg\	.
.	8f/ 8B/ 8G/	.	8g\J	.
=85	=85	=85	=85	=85
!LO:N:vis=2.	!	!	!	!
4.C/ 4.CC/	8e/L 8c/ 8G/	.	8cc\L	.
!	!	!	!	!LO:DY:rj
.	8g/ 8e/ 8c/	pp	8ee\	pp
.	8cc/J 8a/ 8e-X/	.	8ff#X\J	.
!LO:N:vis=2.	!	!	!	!
4.GG/ 4.GGG/	4cc\ 4g\ 4f\ 4d\	.	8gg\L	.
.	.	.	8ggg\	.
.	8b\ 8g\ 8f\ 8d\	.	8gg\J	.
=86	=86	=86	=86	=86
!LO:N:vis=2.	!	!	!	!
4.C/ 4.CC/	8e/L 8c/ 8G/	.	8cc\L	.
.	8g/ 8e/ 8c/	.	8ee\	.
.	8cc/J 8a/ 8e-X/	.	8ff#X\J	.
!LO:N:vis=2.	!	!	!	!
4.GG/ 4.GGG/	4cc/ 4g/ 4f/ 4d/	.	8gg\L	.
.	.	.	8ggg\	.
.	8gg/ 8b/ 8f/	.	8gg\J	.
=87	=87	=87	=87	=87
*	*	*	*8va	*
!	!	!	!LO:TX:t=P:problem=górne nuty - romby (sztuczne flażolety)	!
!	!	!	!LO:TX:b:t=sons harmoniques.	!
2.C/ 2.CC/	[2.gg\ [2.cc\ [2.e\	.	8ggg\L 8ccc\	.
.	.	.	8ccc\ 8gg\	.
.	.	.	8eee\J 8ccc\	.
.	.	.	8ggg\L 8eee\	.
.	.	.	8cccc\ 8ggg\	.
.	.	.	8eeee\J 8cccc\	.
=88	=88	=88	=88	=88
*	*^	*	*	*
4CCC/	2.gg\] 2.cc\] 2.e\]	2r	.	2.gggg\ 2.eeee\;	.
8r	.	.	.	.	.
4r	.	.	.	.	.
!	!	!LO:TX:b:i:t=Fine.	!	!	!
.	.	4r	.	.	.
8r	.	.	.	.	.
*	*v	*v	*	*	*
*	*	*	*X8va	*
==	==	==	==	==
*-	*-	*-	*-	*-
!!!system-decoration: {(<s1,s2>,s3)}
!!!RDF**dynam: ff = ff.
!!!RDF**dynam: f = f.
!!!RDF**dynam: p = p.
!!!RDF**dynam: pp = pp.
!!!RDF**dynam: > = dim.
!!!RDF**kern: > = above
!!!RDF**kern: < = below
!!!EED: Andrzej Borzym
!!!EEV: 2021-05-19
!!!ENC: Katarzyna Serwa
!!!END: 2021-05-05
